lib/assets/buttons/cmd_delete.svg

<?xml version="1.0" encoding="UTF-8"?><!DOCTYPE svg PUBLIC "-//W3C//DTD SVG 1.1//EN" "http://www.w3.org/Graphics/SVG/1.1/DTD/svg11.dtd"><svg xmlns="http://www.w3.org/2000/svg" xmlns:xlink="http://www.w3.org/1999/xlink" version="1.1" width="24" height="24" viewBox="0 0 24 24"><path d="M6,19A2,2 0 0,0 8,21H16A2,2 0 0,0 18,19V7H6V19M8,9H16V19H8V9M15.5,4L14.5,3H9.5L8.5,4H5V6H19V4H15.5Z" /></svg>

<svg height="24" viewBox="0 0 24 24" width="24" xmlns="http://www.w3.org/2000/svg">
    <path d="m6 19a2 2 0 0 0 2 2h8a2 2 0 0 0 2-2v-12h-12zm2-10h8v10h-8zm7.5-5-1-1h-5l-1 1h-3.5v2h14v-2z" />
</svg>
